X:1
T:Andreas Polka
C:traditionell
R:polka
%%textfont Helvetica-Narrow 10pt
%%begintext align
B:"Grossrussbacher Auslese 1990", zusammengstellt von D.Draxler, H.Fritz, N.Hauer, E.Schmidt, M.Walcher, Herausgegeben vom Oesterreichisches Volksliedwerk und den Volksliedwerken fuer Niederoesterreich und Wien, Wien 1990,
%%endtext
Z:abc transcription Simon Wascher
M:2/4
L:1/8
K:G
z |\
Bd dd | ce ee | df af | gB d2 |
Bd dd | ce ee | df af | gb g :|
K:C
|: a |\
g2 e2 | c3a | g2 f2 | B3b |
a2 f2 | B3b | a2 g2 | e3a |
g2 e2 | c3a | g2 f2 | B3b |
a2 g2 | f2 B2 | c2 B2 | cc c :|
g |\
bz az | az gz | az gz | e3g |
az gz | f3g | az gz | e3g |
bz az | az gz | az gz | e3g |
az gz | fz Bz | ce dg | cc c :|
%%wordsfont Times-Italic 11pt
W:aus Simon Waschers TradArchiv
